X:1
T:Canzon se l'esser meco
T:Orlando Lasso
T:Canzon se l'esser meco
C:Orlando Lasso
Z:Gabriele Fiamma
%%score [ 1 2 3 4 ]
L:1/8
Q:1/4=100
M:2/2
K:C
V:1 alto1 nm="Superius" snm="S"
V:2 alto1 nm="Cantus I" snm="C I"
V:3 alto2 nm="Cantus II" snm="C II"
V:4 tenor nm="Tenor" snm="T"
V:1
 x8 | z2 z2 z2 x2 |[M:4/2][K:treble][Q:1/4=100] d8 ^c4 z2 d2 | d2 d2 B4 c4 c2 c2 | c2 c4 _B2 A8 | %5
w: ||Can- zon se|l'es- ser me- co Dal ma-|ti- no a la se-|
 ^F4 z2 G2 c6 A2 | _B4 A4 G8 | A8 z4 z2 A2 | G2 A2 _B2 B4 A2 A2 G2 | F2 A3 G/F/ G2 A4 z2 A2- | %10
w: ra, T'ha fat- to|di mia schie-|ra, Tu|non vor- rai mo- strar- ti in cia-|scun lo- * * * co; E|
 A2 B2 c2 d4 c2 A2 A2 | B4 c4 A4 G4 | z2 D2 AGAB c2 F2 F2 F2 | E2 c2 c2 B2 A4 ^G4 | %14
w: _ d'al- trui lo- da, cu- re-|rai si po- co,|Ch'as- sai _ _ _ _ ti fia pen-|sar, Ch'as- sai ti fia pen-|
 A4 z4 z4 z2 e2- | e2 e2 c2 c4 A2 A4 | A8 z2 _B2 A3 B | c6 A2 c2 c2 z2 A2 | %18
w: sar, Co-|* me m'ha con- cio il fo-|co Di que- sta|vi- va pe- tra, Di|
 F3 G A2 A2 D2 D2 ^F2 G2 | A8 ^F4 F4 | G4 E2 A4 GF G4 | !fermata!A16 |] %22
w: que- sta vi- va pe- tra o- v'io m'ap-|pog- gio, o-|v'io m'ap- pog- * * *|gio.|
V:2
 x8 | z2 z2 z2 x2 |[M:4/2][K:treble] A8 A4 z2 A2 | A2 A2 d4 G4 A2 A2 | A4 G6 F2 E4 | %5
w: ||Can- zon se|l'es- ser me- co Dal ma-|ti- no a la se-|
 A4 z2 _B2 A6 E2 | G4 c4 c8 | c8 z4 A4 | _B2 c2 d2 d4 c4 B2 | A2 D2 d4 ^c4 c4 | %10
w: ra, T'ha fat- to|di mia schie-|ra, Tu|non vor- rai mo- strar- ti in|cia- scun lo- co; E|
 d2 d2 G4 A4 ^F2 F2 | G4 E4 c8 | A4 z2 D2 AGAB c2 d2 | e8 c4 B2 B2 | c4 G2 c4 BA B4 | %15
w: d'al- trui lo- da, cu- re-|rai si po-|co, Ch'as- sai _ _ _ _ ti|fia pen- sar di|pog- gio in pog- * * *|
 c2 c2 A2 A2 G2 F2 E4 | F2 F2 D3 E F6 D2 | A4 A2 c2 A3 _B c4 | d6 c4 _B2 A2 d2 | ^c2 d4 c2 d4 A4 | %20
w: gio, Co- me m'ha con- cio il fo-|co Di que- sta vi- va|pe- tra, Di que- sta vi-|va pe- tra o- v'io m'ap-|pog- * * gio, o-|
 _B4 c4 d8 | ^c16 |] %22
w: v'io m'ap- pog-|gio.|
V:3
 x8 | z2 z2 z2 x2 |[M:4/2][K:treble] F8 E4 z2 ^F2 | ^F2 F2 G4 E4 z2 =F2- | F2 E2 E2 D2 ^C2 D4 C2 | %5
w: ||Can- zon se|l'es- ser me- co Dal|_ ma- ti- no a la se- *|
 D8 z2 F2 E2 C2 | D2 E2 F6 ED E4 | F4 z2 E2 D2 E2 F4 | z4 F4 G2 E2 F2 D2- | DE F2 D4 E8 | %10
w: ra, T'ha fat- to|di mia schie- * * *|ra, Tu non vor- rai|mo- strar- ti in cia- scun|_ _ _ lo- co;|
 F4 E2 D2 F2 E2 z2 D2 | D2 E4 C4 F3 E/D/ E2 | F8 z2 D2 AGAB | c2 A2 G4 E4 E2 E2- | %14
w: E d'al- trui lo- da, cu-|re- rai si po- * * *|co, Ch'as- sai _ _ _|_ ti fia pen- sar di|
 E2 F2 E2 A4 ^G^F G4 | A2 A2 E2 F2 E2 D2 ^C4 | D4 z2 F2 D3 E F2 F2 | E2 E2 F2 E2 F4 E2 F2 | %18
w: _ pog- gio in pog- * * *|gio, Co- me m'ha con- cio il fo-|co Di que- sta vi- va|pe- tra o- v'io m'ap- pog- gio, Di|
 D3 E F2 E2 G2 G2 z2 D2 | E2 F2 E4 D2 A4 D2- | D2 E4 F3 EDC D4 | E16 |] %22
w: que- sta vi- va pe- tra o-|v'io m'ap- pog- gio, o- v'io|_ m'ap- pog- * * * *|gio.|
V:4
 x8 | z2 z2 z2 x2 |[M:4/2][K:treble-8] d8 A4 z2 d2 | d2 d2 G4 c4 F2 F2 | A4 c2 G2 A8 | %5
w: ||Can- zon se|l'es- ser me- co Dal ma-|ti- no a la se-|
 D4 z2 G2 F4 A4 | G4 F4 c8 | F4 A4 _B2 c2 d4 | z4 _B4 G2 A2 F2 G2 | d3 c _B4 A8 | d4 c2 B2 A4 d4 | %11
w: ra, T'ha fat- to|di mia schie-|ra, Tu non vor- rai|mo- strar- ti in cia- scun|lo- * * co;|E d'al- trui lo- da,|
 G2 G2 A4 F4 c4 | d8 z4 z2 D2 | AGAB c2 e2 A2 A2 E4 | A4 c2 A2 e4 e4 | z2 A2 A2 F2 c2 d2 A4 | %16
w: cu- re- rai si po-|co, Ch'as-|sai _ _ _ _ ti fia pen- sar|di pog- gio in pog- gio,|Co- me m'ha con- cio il fo-|
 D4 z2 d2 _B3 c d4 | A4 z2 A2 F3 G A4 | _B4 A4 G4 d2 B2 | A8 D4 d4 | G4 A4 _B8 | A16 |] %22
w: co Di que- sta vi-|va, Di que- sta vi-|va pe- tra o- v'io m'ap-|pog- gio, o-|v'io m'ap- pog-|gio.|

